polaris-icons/icons/new-icons/CashPoundMajor.svg

<svg width="20" height="20" viewBox="0 0 20 20" fill="none" xmlns="http://www.w3.org/2000/svg">
<path d="M10 6C9.0335 6 8.25 6.7835 8.25 7.75V9.25H7.5C7.08579 9.25 6.75 9.58579 6.75 10C6.75 10.4142 7.08579 10.75 7.5 10.75H8.25V11.75H7.5C7.08579 11.75 6.75 12.0858 6.75 12.5C6.75 12.9142 7.08579 13.25 7.5 13.25H12C12.4142 13.25 12.75 12.9142 12.75 12.5C12.75 12.0858 12.4142 11.75 12 11.75H9.75V10.75H10.5C10.9142 10.75 11.25 10.4142 11.25 10C11.25 9.58579 10.9142 9.25 10.5 9.25H9.75V7.75C9.75 7.61193 9.86193 7.5 10 7.5H10.75V8C10.75 8.41421 11.0858 8.75 11.5 8.75C11.9142 8.75 12.25 8.41421 12.25 8V7.25C12.25 6.55964 11.6904 6 11 6H10Z" fill="#4A4A4A"/>
<path fill-rule="evenodd" clip-rule="evenodd" d="M10 3C6.13401 3 3 6.13401 3 10C3 13.866 6.13401 17 10 17C13.866 17 17 13.866 17 10C17 6.13401 13.866 3 10 3ZM4.5 10C4.5 6.96243 6.96243 4.5 10 4.5C13.0376 4.5 15.5 6.96243 15.5 10C15.5 13.0376 13.0376 15.5 10 15.5C6.96243 15.5 4.5 13.0376 4.5 10Z" fill="#4A4A4A"/>
</svg>

<svg viewBox="0 0 20 20" xmlns="http://www.w3.org/2000/svg"><path d="M10 6a1.75 1.75 0 0 0-1.75 1.75v1.5h-.75a.75.75 0 0 0 0 1.5h.75v1h-.75a.75.75 0 0 0 0 1.5h4.5a.75.75 0 0 0 0-1.5h-2.25v-1h.75a.75.75 0 0 0 0-1.5h-.75v-1.5a.25.25 0 0 1 .25-.25h.75v.5a.75.75 0 0 0 1.5 0v-.75c0-.69-.56-1.25-1.25-1.25h-1Z" fill="#5C5F62"/><path fill-rule="evenodd" d="M10 3a7 7 0 1 0 0 14 7 7 0 0 0 0-14Zm-5.5 7a5.5 5.5 0 1 1 11 0 5.5 5.5 0 0 1-11 0Z" fill="#5C5F62"/></svg>
